X:1
T:Above the Hills of Time the Cross
T:Londonderry, 11.10.11.10 D Arr. Stephan Peters 
T:Above the Hills of Time 
T:The Cross is Calling 
T:From "Above the Hills of Time" By Thomas Tiplady, 1931 Updated 2016
T:This Score is in the Public Domain.
T:This Score is in the Public Domain.
C:Londonderry
Z:Thomas Tiplady (1931) Stephan Peters (2016)
Z:This Score is in the Public Domain.
%%score { 1 | 2 }
L:1/8
Q:1/4=75
M:4/4
K:C
V:1 treble nm="Piano"
V:2 bass 
V:1
 z B,CD"C" [CE]3"G" [B,D] |"C" [CE]"F"[CA]"C"[CG][CE]"F" ([A,D][A,C]) [G,A,-]2 | %2
w: A- bove the hills of|time the cross is call- * ing,|
w: The cross, O Christ, thy|won- d'rous love re- veal- * ing,|
"F" [F,A,] [A,C]"C"[CE]"G7"[DF]"C" [EG]3"F" [FA] |"C" [EG]"F"[CE]"Am"[A,C]"C"[CE]"Gsus4" [CD-]4 | %4
w: * fair as the sun, when|night has turned to day;|
w: * a- wak- ens hearts, as|with the light of morn.|
"G" [B,D] B,CD"C" [CE]3"F" [CD] |"C" [B,E][EA]"Em"[EG][B,E]"Am" ([CD][A,C])"F" A,2- | %6
w: * And from it streams of|sac- red blood are fal- * ling,|
w: * And Thy wounds for our|sin- ful flesh is heal- * ing,|
 A, [A,B,]"G7sus4"[A,C][CD]"C" [CE]3"Am" [CF] |"C" [CE][CD]"F"[A,C]"G"[B,D]"C" C4- | %8
w: * to cleanse the heart and|ban- ish sin a- way.|
w: * for us, and we in|Thee have been re born.|
"^Above the Hills of Time" C GAB"C" [Ec]3 [EB] |"F" [FB][CA][CG][CA]"C" ([EG][CE])"Csus4" C2- | %10
w: * To this dear cross, the|eyes of men are tur- * ning,|
w: * Like ech- oes to sweet|cha- pel bells re- ply- * ing,|
"C" C GAB"Am" [Cc]3"C" [EB] |"F" [FB][FA]"Dm"[CG][A,E]"Gsus4" [CD-]4 | %12
w: * to- day as in the|a- ges lost to sight;|
w: * the peo- ple of the|church an- swer Thy call;|
"G" [B,D] [DG][DG][DG]"C" [Ee]3 [Ed] |"Am" [Ed]"Em"[Ec]"F"[CA][Fc]"C" ([EG][CE])"Asus2" [B,C-]2 | %14
w: * And so for Thee, O|Christ, men's hearts are year- * ning,|
w: * And we will love Thee|with a love un- dy- * ing,|
"Am" [A,C] B,CD"C" [CE]"F"[CA]"C"[CG]"Am"[CE] |"F" [A,D][A,C]"F"A,"G"[G,B,]"C" !fermata!C4 |] %16
w: * as ship- wrecked sea- men yearn for|rays of mor- ning light.|
w: * and with the ho- ly saints will|we be ga- thered all.|
V:2
 z4 [E,,C,]3 [D,G,] | [E,,C,][F,,C,][G,,C,][F,,C,] [F,,C,]2 ([F,,C,-]2 | %2
 [A,,C,]) [A,,F,][G,,E,][G,,D,] [C,G,]3 [F,,C,] | [C,G,][C,F,][A,,E,][G,,C,] [G,,D,]4- | %4
 [G,,D,] B,,C,D, [G,,C,]3 [C,E,] | [G,,C,][C,G,][E,,B,,][G,,E,] [A,,E,]2 [F,,C,]2- | %6
 [F,,C,] [F,,C,][F,,C,][G,,D,] [C,G,]3 [A,,E,] | [E,,C,][G,,C,][F,,C,][G,,D,] [C,E,G,]4- | %8
 [C,E,G,] G,F,D, [C,G,]3 [C,G,] | [F,,C,][F,,C,][F,,A,,][F,,C,] [C,G,]2 [C,-F,G,-]2 | %10
 [C,E,G,] G,F,D, [A,,E,]3 [G,,C,] | [F,,C,][F,,C,][F,,A,][D,F,] [G,,D,]4- | %12
 [G,,D,] [G,B,][D,B,][B,,B,] [C,G,]3 [C,G,] | [A,,E,][G,,E,][F,,D,][F,,A,] [C,G,]2 [A,,E,]2- | %14
 [A,,E,] B,,C,D, [C,G,][F,,C,][G,,E,][A,,E,] | [F,,C,][F,,C,][F,,C,F,][G,,D,] !fermata![C,E,G,]4 |] %16

